X: 366
T: Jie hun
%%abc-version 2.0
%%abcx-abcm2ps-target-version 5.9.1 (29 Sep 2008)
%%abc-creator hum2abc beta
%%abcx-conversion-date 2013/10/02 07:52:30
%%abc-edited-by Helmut Schaffrath
%%humdrum-veritas 1689964611
%%humdrum-veritas-data 2560155632
%%continueall 1
%%barnumbers 0
L: 1/8
M: 2/4
K: G
dA2A/ B/ [I:setbarnb 1]| 
d Fz2 | 
dA2B/ A/ | 
G2z2 | 
dA2A/ B/ | 
d Fz2 | 
G A B A | 
GA2E | 
D2z2 |]  



